assets/img/icons/hiking-man.svg

<svg xmlns="http://www.w3.org/2000/svg" width="768" height="1024"><defs><clipPath clipPathUnits="userSpaceOnUse" id="cp1"><path d="M0 0h768v1024H0z"/></clipPath></defs><style></style><g id="Page 1" clip-path="url(#cp1)"><path id="Path 1" fill-rule="evenodd" d="M766.73 380.65l-27.96 74.29c-1.45 3.84-4.35 6.82-7.93 8.47v545.33c0 8.43-6.83 15.26-15.25 15.26h-42.33c-8.42 0-15.25-6.83-15.25-15.26V466.5l-181.61 7.83c-.22.01-.44.01-.67.01a15.2 15.2 0 01-5.28-.94c-2.42-.71-4.65-2.03-6.47-3.84l-33.42-33.43-18.57 106.01 86.45 152.61c3.69 6.4 5.98 13.52 6.76 21.06.53 3.08.78 6.01.78 8.93v208.67l39.8 4.62c19.81 2.31 34.8 19.08 34.88 39.02l.06 16.99c.01 4.06-1.59 7.95-4.45 10.83a15.26 15.26 0 01-10.8 4.49H413.98c-8.43 0-15.26-6.83-15.26-15.26V736.35l-79.51-140.37-39.08 141.22c-1.91 7.13-5.32 13.78-10.11 19.67-1.8 2.54-3.68 4.79-5.76 6.86-.05.06-.11.12-.16.17L123.94 899.81l24.16 30.5c12.38 15.64 11.12 38.1-2.93 52.25l-11.97 12.06c-2.86 2.88-6.74 4.5-10.8 4.51h-.03c-4.04 0-7.92-1.61-10.78-4.47L4.47 887.54c-5.96-5.95-5.96-15.61 0-21.57l39.61-39.61.07-.07c.06-.05.11-.11.16-.16l136.04-130.29 48.74-166.82 11.71-66.85c-1.42-.07-2.85-.2-4.29-.45l-78.54-13.76c-18.9-3.31-31.59-21.39-28.28-40.3l9.93-56.65-30.96-7.47c-7.86-1.9-12.87-9.61-11.42-17.57l29.85-163.95a15.3 15.3 0 016.74-10.09c3.54-2.28 7.87-3 11.97-1.98l27.84 6.96 4.58-26.19c3.32-18.91 21.39-31.6 40.3-28.28l78.54 13.77c9.13 1.6 17.11 6.68 22.46 14.3 5.35 7.62 7.42 16.85 5.82 25.99l-9.88 56.35c1.42.07 2.85.2 4.29.45l18.96 3.33 5.62-30.88a48.483 48.483 0 01-4.62-4.35c-8.85-9.51-13.47-21.86-13-34.78l3.59-99.83c.96-26.75 23.46-47.7 50.25-46.76l57 2.05c12.92.46 24.91 5.96 33.76 15.47 8.85 9.51 13.47 21.86 13.01 34.78l-3.6 99.83c-.46 12.92-5.96 24.91-15.46 33.76-8.28 7.7-18.71 12.15-29.79 12.88l-6.87 48.1c3.38 3.35 6.5 7.02 9.3 11 11.99 17.1 16.8 37.68 13.66 58.14l57.57 55.18 146.35-6.31 2.53-.12V165.71c0-8.43 6.83-15.26 15.25-15.26h42.32c8.43 0 15.26 6.83 15.26 15.26V361.1l20.84-1.06c5.12-.27 10.05 2.09 13.09 6.24 3.03 4.16 3.77 9.56 1.96 14.37zM643.31 436.6l-1.75-40.55-137.62 5.94c-4.15.17-8.21-1.35-11.21-4.23L377.06 286.9c-6.09-5.83-6.29-15.49-.46-21.57s15.49-6.29 21.57-.46l19.31 18.51a50.5 50.5 0 00-4.56-7.95c-7.65-10.9-19.02-18.16-32.02-20.44l-31.04-5.44c-.53-.04-1.06-.1-1.6-.19-.48-.09-.95-.2-1.41-.33l-32.37-5.68c-2.29-.39-4.57 1.2-4.97 3.5l-47.89 273.24 48.18 8.44c4.79.84 8.89 3.91 11.05 8.27l.26.53c.13.27.25.54.4.8l6.09 10.75c.01.01.01.02.02.04l99.63 175.88c1.3 2.3 1.98 4.89 1.98 7.53v192.16l46.25 5.37V724.74c0-1.28-.14-2.63-.41-4.12-.08-.45-.14-.9-.18-1.36-.31-3.37-1.3-6.52-2.94-9.36l-89.21-157.49a15.26 15.26 0 01-1.75-10.15l23.22-132.48-86.17-86.17c-5.95-5.95-5.95-15.61 0-21.57 5.96-5.96 15.62-5.96 21.58 0l141.54 141.55 162.15-6.99zM542.26 968.34L429.23 955.2v23.64h120.92v-1.68a8.923 8.923 0 00-7.89-8.82zm-244.31-409.9l-.63-1.12-42.54-7.45-46.29 158.45c-.75 2.56-2.16 4.89-4.09 6.74L75.44 838.55l29.47 37.22 137.85-133.68c.88-.89 1.72-1.91 2.56-3.12.25-.38.53-.75.83-1.1 2.17-2.6 3.69-5.53 4.54-8.7l47.26-170.73zM124.18 949.25l-32.72-41.32-.04-.04-37.88-47.85-16.71 16.71 85.5 85.51 1.19-1.19c3.17-3.2 3.46-8.28.66-11.82zm122.57-521.07l12.97-74 35.57-202.95c.4-2.29-1.2-4.57-3.49-4.97l-78.54-13.77c-2.3-.4-4.58 1.2-4.98 3.49l-48.53 276.95c-.4 2.29 1.2 4.57 3.49 4.97l78.54 13.77c2.3.4 4.57-1.2 4.97-3.49zM144.9 320.9l23.46-133.86-14.17-3.54-24.36 133.76 15.07 3.64zm223.86-99.01l17.4 3.05c4.9.86 9.64 2.17 14.2 3.87l4.41-30.81-31.3-1.13c-.05 0-.1-.01-.15-.01l-4.56 25.03zm-7.97-174l-1.27 35.34c23.36-5.77 63.93-19.07 88.52-45.81-3.18-2.98-7.24-4.69-11.58-4.85l-57-2.05c-.22-.01-.44-.01-.66-.01-9.64 0-17.66 7.66-18.01 17.38zm89.44 103.17l2.78-77.09c-32.63 25.11-74.05 36.49-94.63 40.88l-1.18 32.87c-.17 4.78 1.55 9.36 4.85 12.9 1.23 1.33 2.63 2.45 4.15 3.33 1 .35 1.95.8 2.84 1.33 1.76.65 3.61 1.03 5.53 1.1l57 2.05c4.74.16 9.36-1.55 12.9-4.85 3.55-3.3 5.59-7.74 5.76-12.52zm279.74 240.63l-10.63.54c-1.2.31-2.45.48-3.75.48h-5.82l-37.74 1.91 1.77 40.94 40.04-.99 16.13-42.88zm-41.45-29.49h11.81V180.96h-11.81V362.2zm11.81 104.23h-11.81v527.06h11.81V466.43z" fill="#000"/></g></svg>

<svg xmlns="http://www.w3.org/2000/svg" viewBox="0 0 768 1024" width="768" height="1024">
	<defs>
		<clipPath clipPathUnits="userSpaceOnUse" id="cp1">
			<path d="M0 0L768 0L768 1024L0 1024Z" />
		</clipPath>
	</defs>
	<style>
		tspan { white-space:pre }
		.shp0 { fill: #000000 } 
	</style>
	<g id="Page 1" clip-path="url(#cp1)">
		<path id="Path 1" fill-rule="evenodd" class="shp0" d="M766.73 380.65L738.77 454.94C737.32 458.78 734.42 461.76 730.84 463.41L730.84 1008.74C730.84 1017.17 724.01 1024 715.59 1024L673.26 1024C664.84 1024 658.01 1017.17 658.01 1008.74L658.01 466.5L476.4 474.33C476.18 474.34 475.96 474.34 475.73 474.34C473.88 474.34 472.1 474.01 470.45 473.4C468.03 472.69 465.8 471.37 463.98 469.56L430.56 436.13L411.99 542.14L498.44 694.75C502.13 701.15 504.42 708.27 505.2 715.81C505.73 718.89 505.98 721.82 505.98 724.74L505.98 933.41L545.78 938.03C565.59 940.34 580.58 957.11 580.66 977.05L580.72 994.04C580.73 998.1 579.13 1001.99 576.27 1004.87C573.41 1007.74 569.52 1009.36 565.47 1009.36L413.98 1009.36C405.55 1009.36 398.72 1002.53 398.72 994.1L398.72 736.35L319.21 595.98L280.13 737.2C278.22 744.33 274.81 750.98 270.02 756.87C268.22 759.41 266.34 761.66 264.26 763.73C264.21 763.79 264.15 763.85 264.1 763.9L123.94 899.81L148.1 930.31C160.48 945.95 159.22 968.41 145.17 982.56L133.2 994.62C130.34 997.5 126.46 999.12 122.4 999.13L122.37 999.13C118.33 999.13 114.45 997.52 111.59 994.66L4.47 887.54C-1.49 881.59 -1.49 871.93 4.47 865.97L44.08 826.36C44.11 826.33 44.13 826.31 44.15 826.29C44.21 826.24 44.26 826.18 44.31 826.13L180.35 695.84L229.09 529.02L240.8 462.17C239.38 462.1 237.95 461.97 236.51 461.72L157.97 447.96C139.07 444.65 126.38 426.57 129.69 407.66L139.62 351.01L108.66 343.54C100.8 341.64 95.79 333.93 97.24 325.97L127.09 162.02C127.85 157.87 130.29 154.22 133.83 151.93C137.37 149.65 141.7 148.93 145.8 149.95L173.64 156.91L178.22 130.72C181.54 111.81 199.61 99.12 218.52 102.44L297.06 116.21C306.19 117.81 314.17 122.89 319.52 130.51C324.87 138.13 326.94 147.36 325.34 156.5L315.46 212.85C316.88 212.92 318.31 213.05 319.75 213.3L338.71 216.63L344.33 185.75C342.71 184.41 341.17 182.97 339.71 181.4C330.86 171.89 326.24 159.54 326.71 146.62L330.3 46.79C331.26 20.04 353.76 -0.91 380.55 0.03L437.55 2.08C450.47 2.54 462.46 8.04 471.31 17.55C480.16 27.06 484.78 39.41 484.32 52.33L480.72 152.16C480.26 165.08 474.76 177.07 465.26 185.92C456.98 193.62 446.55 198.07 435.47 198.8L428.6 246.9C431.98 250.25 435.1 253.92 437.9 257.9C449.89 275 454.7 295.58 451.56 316.04L509.13 371.22L655.48 364.91L658.01 364.79L658.01 165.71C658.01 157.28 664.84 150.45 673.26 150.45L715.58 150.45C724.01 150.45 730.84 157.28 730.84 165.71L730.84 361.1L751.68 360.04C756.8 359.77 761.73 362.13 764.77 366.28C767.8 370.44 768.54 375.84 766.73 380.65ZM643.31 436.6L641.56 396.05L503.94 401.99C499.79 402.16 495.73 400.64 492.73 397.76L377.06 286.9C370.97 281.07 370.77 271.41 376.6 265.33C382.43 259.25 392.09 259.04 398.17 264.87L417.48 283.38C416.22 280.63 414.7 277.97 412.92 275.43C405.27 264.53 393.9 257.27 380.9 254.99L349.86 249.55C349.33 249.51 348.8 249.45 348.26 249.36C347.78 249.27 347.31 249.16 346.85 249.03L314.48 243.35C312.19 242.96 309.91 244.55 309.51 246.85L261.62 520.09L309.8 528.53C314.59 529.37 318.69 532.44 320.85 536.8L321.11 537.33C321.24 537.6 321.36 537.87 321.51 538.13L327.6 548.88C327.61 548.89 327.61 548.9 327.62 548.92L427.25 724.8C428.55 727.1 429.23 729.69 429.23 732.33L429.23 924.49L475.48 929.86L475.48 724.74C475.48 723.46 475.34 722.11 475.07 720.62C474.99 720.17 474.93 719.72 474.89 719.26C474.58 715.89 473.59 712.74 471.95 709.9L382.74 552.41C381 549.34 380.38 545.75 380.99 542.26L404.21 409.78L318.04 323.61C312.09 317.66 312.09 308 318.04 302.04C324 296.08 333.66 296.08 339.62 302.04L481.16 443.59L643.31 436.6ZM542.26 968.34L429.23 955.2L429.23 978.84L550.15 978.84L550.15 977.16C550.13 972.65 546.74 968.86 542.26 968.34ZM297.95 558.44L297.32 557.32L254.78 549.87L208.49 708.32C207.74 710.88 206.33 713.21 204.4 715.06L75.44 838.55L104.91 875.77L242.76 742.09C243.64 741.2 244.48 740.18 245.32 738.97C245.57 738.59 245.85 738.22 246.15 737.87C248.32 735.27 249.84 732.34 250.69 729.17L297.95 558.44ZM124.18 949.25L91.46 907.93C91.44 907.91 91.43 907.9 91.42 907.89L53.54 860.04L36.83 876.75L122.33 962.26L123.52 961.07C126.69 957.87 126.98 952.79 124.18 949.25ZM246.75 428.18L259.72 354.18L295.29 151.23C295.69 148.94 294.09 146.66 291.8 146.26L213.26 132.49C210.96 132.09 208.68 133.69 208.28 135.98L159.75 412.93C159.35 415.22 160.95 417.5 163.24 417.9L241.78 431.67C244.08 432.07 246.35 430.47 246.75 428.18ZM144.9 320.9L168.36 187.04L154.19 183.5L129.83 317.26L144.9 320.9ZM368.76 221.89L386.16 224.94C391.06 225.8 395.8 227.11 400.36 228.81L404.77 198L373.47 196.87C373.42 196.87 373.37 196.86 373.32 196.86L368.76 221.89ZM360.79 47.89L359.52 83.23C382.88 77.46 423.45 64.16 448.04 37.42C444.86 34.44 440.8 32.73 436.46 32.57L379.46 30.52C379.24 30.51 379.02 30.51 378.8 30.51C369.16 30.51 361.14 38.17 360.79 47.89ZM450.23 151.06L453.01 73.97C420.38 99.08 378.96 110.46 358.38 114.85L357.2 147.72C357.03 152.5 358.75 157.08 362.05 160.62C363.28 161.95 364.68 163.07 366.2 163.95C367.2 164.3 368.15 164.75 369.04 165.28C370.8 165.93 372.65 166.31 374.57 166.38L431.57 168.43C436.31 168.59 440.93 166.88 444.47 163.58C448.02 160.28 450.06 155.84 450.23 151.06ZM729.97 391.69L719.34 392.23C718.14 392.54 716.89 392.71 715.59 392.71L709.77 392.71L672.03 394.62L673.8 435.56L713.84 434.57L729.97 391.69ZM688.52 362.2L700.33 362.2L700.33 180.96L688.52 180.96L688.52 362.2ZM700.33 466.43L688.52 466.43L688.52 993.49L700.33 993.49L700.33 466.43Z" />
	</g>
</svg>
